X: 1218
T: Karcığar Aranağme (Devrihindî)
C: ?
O: Turkey
F: http://compmusic.upf.edu/node/140
N: karcigar--aranagme--devrihindi--1--
N: makam= karcigar
N: form= aranagme
N: usul= devrihindi = 7/4
M: 7/4
L: 1/16
K: C _2/4B _3/4e ^3/4f 
Q: 1/4=72
%%MIDI tuningsystem comma53
d4 c4 B4 c2B2 B2A2 A8  | g4 f4 e4 d2c2 f2ed d8  | \
w:  ARANAĞME  |   | 
g4 a4 a2=e2 _2/4e4 _3/4e2d2 d2ed cBc2  | 
w:   | 
B2c2 d2ef edc2 c2B2 B2A2 A8  | d4 c4 B4 c2B2 B2A2 A8  | 
w:   |  ARANAĞME  | 
g4 f4 e4 d2c2 f2ed d8  | g4 a4 a2=e2 _2/4e4 _3/4e2d2 d2ed cBc2  | 
w:   |   | 
B2c2 d2ef edc2 c2B2 B2A2 A8  | |


